HTML/img/Component/Alpha-Bits.svg

<svg xmlns="http://www.w3.org/2000/svg" xmlns:xlink="http://www.w3.org/1999/xlink" viewBox="0 0 348 348" fill="none"><path d="M5.079 5.776h336.913v337.67H5.08z" stroke-width="2" stroke="#000"/><path d="M282.734 40.554c0-8.376 6.966-15.165 15.56-15.165 4.126 0 8.084 1.597 11.001 4.441 2.918 2.844 4.558 6.702 4.558 10.724 0 8.376-6.966 15.165-15.56 15.165-8.593 0-15.559-6.79-15.559-15.165z" stroke-width="2" stroke="#000"/><path fill="#fff" stroke="#000" d="M26.542 32.441h206.441v47.186H26.542zM26.542 116.271H84.05v58.983H26.542zM26.542 191.254H84.05v58.983H26.542zM26.542 266.237H84.05v58.983H26.542zM262.051 116.271h57.508v58.983h-57.508zM262.051 191.254h57.508v58.983h-57.508zM262.051 266.237h57.508v58.983h-57.508z"/><image y="114.559" x="145.839" xlink:href="data:image/png;base64,iVBORw0KGgoAAAANSUhEUgAAADIAAAAyCAYAAAAeP4ixAAAAAXNSR0IArs4c6QAAAARnQU1BAACx jwv8YQUAAAAJcEhZcwAADsMAAA7DAcdvqGQAAAAYdEVYdFNvZnR3YXJlAHBhaW50Lm5ldCA0LjEu NWRHWFIAAAI3SURBVGhD3dHLcQIxEARQHzgSACEQAEcOHAiBA2GQH8GtNVS1re1tafUZYdauei67 V7+p/pqm6V+Q4RbJcItk6OlyuUyGc28y9BR+7Ff4U3/3IkMv1gQGGd2KDL1gCODvnmToIW4DRrYi Qw88BPA6LzLspdqAUa3IsBc/nvF6DzLskWsDRrQiwx786BTe10uGrUraAO9WZNiKH7uG9/eQYYua NsCzFRm24EeW4nNaybBWSxvg1YoMa/HjavF5LWRYo6cN8GhFhjX4Ua343FoyLOXRBvS2IsNS/Jhe fH4NGZbwbAN6WpFhCX6EF76nlAzXjGgDWluR4Rq+3BvfV0KGOSPbgJZWZJjDl655PB4v6lsO37tG him1bdgA2Fs7TG0rMkzhy3LiIaB2GN6fI0Olpo37/R626HPsm9qj1LQiQ4UvSbndbmG5PgNsjdqr 8N4UGbLSNkqGgNJhSluRIePDlev1Gpbq/Sm2R53FeJ8iw1hJG+fzOSzV+9fYXnVmrKQVGcb4UNYz BJQMw3uYDGGtjdPpFJbpvbXsLHUHrLUiQ+DDYsfjMSzR+1rZmeou4PUxGZpcGyOGgNwwuVZkaPgQ GDkE5IbhtSDDVBuHwyF8Xq4fwe5Sb0i1sgheIW027xwCUsPwOrMIVBt/MQSoYVQrs39eAW3a7/ch nq95N3sDv4vXzP7hNj5hCOBhuJXZ4njhJw0BPEz87eePuI3dbjc9n88Q/y78BPYmexveGbeyWLxV Mtye6esbqEYlP+BABCwAAAAASUVORK5CYII=" preserveAspectRatio="none" height="50" width="50"/><path fill="#fff" stroke="#000" d="M125.612 176.356h88.625v87.593h-88.625z"/><image y="-324.559" x="-195.839" xlink:href="data:image/png;base64,iVBORw0KGgoAAAANSUhEUgAAADIAAAAyCAYAAAAeP4ixAAAAAXNSR0IArs4c6QAAAARnQU1BAACx jwv8YQUAAAAJcEhZcwAADsMAAA7DAcdvqGQAAAAYdEVYdFNvZnR3YXJlAHBhaW50Lm5ldCA0LjEu NWRHWFIAAAI3SURBVGhD3dHLcQIxEARQHzgSACEQAEcOHAiBA2GQH8GtNVS1re1tafUZYdauei67 V7+p/pqm6V+Q4RbJcItk6OlyuUyGc28y9BR+7Ff4U3/3IkMv1gQGGd2KDL1gCODvnmToIW4DRrYi Qw88BPA6LzLspdqAUa3IsBc/nvF6DzLskWsDRrQiwx786BTe10uGrUraAO9WZNiKH7uG9/eQYYua NsCzFRm24EeW4nNaybBWSxvg1YoMa/HjavF5LWRYo6cN8GhFhjX4Ua343FoyLOXRBvS2IsNS/Jhe fH4NGZbwbAN6WpFhCX6EF76nlAzXjGgDWluR4Rq+3BvfV0KGOSPbgJZWZJjDl655PB4v6lsO37tG him1bdgA2Fs7TG0rMkzhy3LiIaB2GN6fI0Olpo37/R626HPsm9qj1LQiQ4UvSbndbmG5PgNsjdqr 8N4UGbLSNkqGgNJhSluRIePDlev1Gpbq/Sm2R53FeJ8iw1hJG+fzOSzV+9fYXnVmrKQVGcb4UNYz BJQMw3uYDGGtjdPpFJbpvbXsLHUHrLUiQ+DDYsfjMSzR+1rZmeou4PUxGZpcGyOGgNwwuVZkaPgQ GDkE5IbhtSDDVBuHwyF8Xq4fwe5Sb0i1sgheIW027xwCUsPwOrMIVBt/MQSoYVQrs39eAW3a7/ch nq95N3sDv4vXzP7hNj5hCOBhuJXZ4njhJw0BPEz87eePuI3dbjc9n88Q/y78BPYmexveGbeyWLxV Mtye6esbqEYlP+BABCwAAAAASUVORK5CYII=" preserveAspectRatio="none" height="50" width="50" transform="scale(-1)"/><path d="M56.034 175.106v15.852M56.034 250.678v15.483M291.966 250.31v16.22M291.966 175.475v15.483" stroke="#000"/></svg>

<svg xmlns="http://www.w3.org/2000/svg" viewBox="0 0 348 348" fill="none"><path d="M5.08 5.78h336.91v337.67H5.08z" stroke-width="2" stroke="#000"/><path d="M282.73 40.55c0-8.37 6.97-15.16 15.56-15.16 4.13 0 8.09 1.6 11 4.44a14.97 14.97 0 014.56 10.72c0 8.38-6.96 15.17-15.56 15.17-8.59 0-15.56-6.8-15.56-15.17z" stroke-width="2" stroke="#000"/><path fill="#fff" stroke="#000" d="M26.54 32.44h206.44v47.19H26.54zm0 83.83h57.51v58.98h-57.5zm0 74.98h57.51v58.99h-57.5zm0 74.99h57.51v58.98h-57.5zm235.51-149.97h57.5v58.98h-57.5zm0 74.98h57.5v58.99h-57.5zm0 74.99h57.5v58.98h-57.5zM125.61 176.36h88.63v87.59H125.6z"/><path d="M56.03 175.1v15.86m0 59.72v15.48m235.94-15.85v16.22m0-91.05v15.48" stroke="#000"/><path d="M169.92 117.42l-23.35 45.06h3.9l19.45-19.44 19.45 19.44h3.9zM169.92 322.89l23.36-45.07h-3.91l-19.45 19.45-19.44-19.45h-3.9z" fill="#000" stroke="#000"/></svg>
